X: 932
T: Stoney Fork
C:Old Time
B: jims roots
M:4/4
L:1/8
Q: 1/4=100
K:A
V:1 "E"ecBG "A"A2 (3efg :|[2"E"ecBG "A"A4 |:[P:C Part
"A"E4c4 | {E}"D"F4 d3A | "E"B2c2 d3e | fe2 ce4 |
V:2 aece AcAc | "E"BAGB "A"A2 (3efg |:[P:B Part
"A"abaf efec | "D"d2fd e2 (3efg |
% abcbook-tune_id 6298c287eb5136cd92a56d86


% abcbook-boost 0
% abcbook-tablature 
% abcbook-transpose 
% abcbook-lastupdated 1654178440927
% abcbook-soundfonts 
% abcbook-repeats 1


